X:1
T:Title
%%score { ( 1 3 ) | ( 2 4 ) }
L:1/8
Q:1/4=100
M:4/4
K:Ab
V:1 treble nm="Grand Piano"
V:3 treble 
V:2 bass 
V:4 bass 
V:1
 [CE]>[DF] [CE]>[_C=D] [=CE]2 [CA]2 | [Ec]2 [EA]2 B>A F2 | [CE]2 [CA]>[DB] [Ec]2 [Ee]2 | z4 B4 | %4
w: Chas.~H.~Gabriel * * * * *||||
 [CE]>[DF] [CE]>[_C=D] [=CE]2 [CA]2 | [Ec]2 [EA]2 B>A F2 | E>E c>d c2 B2 | [CA]6 z2 | %8
w: ||||
 B2 =A>B [Ge]2 [Fd]2 | [Ec]3 [DB] [CA]4 | B2 =A>B [Ge]2 [GB]2 | z4 [Ge]4 | e>d c>d e2 c2 | %13
w: |||||
 [FB]>[FA] [=EG]>[GB] [FA]2 F2 | E>E c>d c2 B2 | [CA]6 z2 |] %16
w: |||
V:2
 [A,,A,]>[A,,A,] [A,,A,]>[A,,A,] [A,,A,]2 [A,,E,]2 | [A,,A,]2 [C,A,]2 [D,F,D]>[D,F,D] [D,A,D]2 | %2
 [A,,A,]2 [A,,A,]>[A,,A,] [A,,A,]2 [C,A,]2 | z4 E2 z2 | %4
 [A,,A,]>[A,,A,] [A,,A,]>[A,,A,] [A,,A,]2 [A,,A,]2 | [A,,A,]2 [C,A,]2 [D,F,D]>[D,F,D] [D,A,D]2 | %6
 [E,A,C]>[E,A,C] [E,A,E]>[E,B,E] [E,A,E]2 [E,G,D]2 | [A,,A,]6 z2 | %8
 [E,G,E]2 [E,_G,E]>[E,=G,E] [E,B,]2 [E,G,]2 | [A,,A,]3 [A,,A,] [A,,A,]4 | %10
 [E,G,E]2 [E,_G,E]>[E,=G,E] [E,B,]2 [E,E]2 | z4 B,2 z2 | %12
 [A,CA]>[A,B,E] [A,E]>[A,B,E] [A,CE]2[K:bass] [A,E]2 | [D,D]>[D,D] [D,D]>[D,D] [D,D]2 [D,A,D]2 | %14
 [E,A,C]>[E,A,C] [E,A,E]>[E,B,E] [E,A,E]2 [E,G,D]2 | [A,,A,]6 z2 |] %16
V:3
 x8 | x8 | x8 | B2 =A2 z2 D2 | x8 | x8 | x8 | x8 | x8 | x8 | x8 | [Ac]2 [A=d]2 z2 D2 | x8 | x8 | %14
 x8 | x8 |] %16
V:4
 x8 | x8 | x8 | [E,G,E]2 [E,_G,E]2 [E,=G,]4 | x8 | x8 | x8 | x8 | x8 | x8 | x8 | %11
 [A,E]2 [F,B,]2 E,4 | x6[K:bass] x2 | x8 | x8 | x8 |] %16

